X:89
T:Willafjord
S:Bernie Waugh
R:Reel
M:4/4
L:1/8
K:D
|:B|\
"D"A2FA2DFA|"G"B2GB2DGB|"D"A2FA2DFA|"Em"EFGA "A"GFED|
"D"A2FA2DFA|"G"B2GB2DGB|"A"ABcd efge|"D"f2d2d3:|
|:f-|\
"D"f2df2fdf|"Em"geae "A"gfeg|"D"f2df2Adf|"F#m"e2ce2Ace|
"G"f2df2fdf|"Em"geaf "A"gfec|ABcd efge|"D"f2d2d3:|

